X:25
T:Mantua Makers Frolick. Ru2.025, The.
%%VWML:RutherfordVol2-2249-p13-0
F:http://www.vwml.org/record/RutherfordVol2/2249/p13
B:RUTHERFORD Complete Collection of 200 Country Dances Vol.2; 1759.
Z:vmp.Mike Hicken 2015 www.village-music-project.org.uk
M:2/4
Q:1/4=140
K:Bb
B2 (3GFE|D[B,B] DF|B2 (3dcB|AFAc|B2 (3GFE|D[B,B] DF|d>B F>A|B4 :|
|: B>df>d|b>dc>B|A>Bc>A|a>cB>A|G>AB>G|g>ed>c|B>G B/A/G/F/|G4:|
|:f>d (3dcB|b>g (3agf|e>d (3dcB|A>GF>E|DFBd|EG ce|cA FA|B4 :|
W:
W: Cast off one Cu: cross over to the Bottom .|.  cast
W: up one Cu: and cross over to the top :|  lead to
W: the bottom  and cast up .|.  lead thro the top and
W: Cast off :||:  Hands round 4 at bottom .||.  right
W: and left at top :|
T:Miss Dawsons Hornpipe. Ru2.026
R:.Hornpipe
L:1/8
B:RUTHERFORD Complete Collection of 200 Country Dances Vol.2; 1759.
Z:vmp.Mike Hicken 2015 www.village-music-project.org.uk
M:6/8
Q:3/8=110
K:G
G2G G>AB/c/|d2B G2B|A2B A2B|A2B AFD|
G2G G>AB/c/|d2B G2B|A2G F2E|D3-D3:|
|:A2B A2B|A2B AFD|d2e d2e|d2e dBG|
c2B c2d|e2f gfe|dcB AGF|G3- G3 :|
W:
W: First Man and 2d Wo: go the whole figure .|  the
W: first Wo: and 2d Man do the same :|  Gallop down
W: two Cu: up again foot it and cast off .|.  right and
W: left quite round :|
